svg/color/aster.svg

<svg version="1.1" id="Layer_1" xmlns="http://www.w3.org/2000/svg" xmlns:xlink="http://www.w3.org/1999/xlink" x="0px" y="0px"
	 width="100%" viewBox="0 0 300 300" enable-background="new 0 0 300 300" xml:space="preserve">
<path fill="#FEFEFE" opacity="1.000000" stroke="none" 
	d="
M127.000000,1.000000 
	C142.354233,1.000000 157.708450,1.000000 173.230469,1.357982 
	C174.064209,2.137640 174.678696,2.773520 175.404068,2.947758 
	C182.429977,4.635415 189.613495,5.801860 196.489304,7.955769 
	C224.250565,16.652243 247.493042,32.176636 266.160309,54.597404 
	C282.342865,74.033867 293.358856,95.861626 298.100067,120.798164 
	C298.513123,122.970688 300.007751,124.937584 301.000000,127.000000 
	C301.000000,142.354233 301.000000,157.708450 300.641998,173.230469 
	C299.862335,174.064209 299.226501,174.678711 299.052277,175.404083 
	C297.364624,182.429993 296.198120,189.613480 294.044220,196.489288 
	C285.347809,224.250595 269.823273,247.492996 247.402573,266.160278 
	C227.966125,282.342865 206.138367,293.358856 181.201828,298.100037 
	C179.029297,298.513092 177.062408,300.007751 175.000000,301.000000 
	C159.645767,301.000000 144.291550,301.000000 128.769531,300.642029 
	C127.935806,299.862366 127.321304,299.226501 126.595924,299.052277 
	C119.570015,297.364624 112.386528,296.198090 105.510712,294.044189 
	C77.749428,285.347748 54.506969,269.823395 35.839725,247.402634 
	C19.657164,227.966141 8.641133,206.138397 3.899969,181.201843 
	C3.486906,179.029312 1.992258,177.062408 1.000000,175.000000 
	C1.000000,159.645767 1.000000,144.291550 1.357980,128.769531 
	C2.137634,127.935814 2.773515,127.321335 2.947755,126.595970 
	C4.635406,119.570053 5.801850,112.386536 7.955760,105.510727 
	C16.652229,77.749451 32.176632,54.506973 54.597393,35.839710 
	C74.033859,19.657135 95.861626,8.641123 120.798180,3.899966 
	C122.970711,3.486906 124.937592,1.992258 127.000000,1.000000 
M255.530182,92.004044 
	C233.814789,55.440987 201.690811,34.539677 159.436295,31.361778 
	C83.936562,25.683561 22.870129,90.607513 31.929317,165.796951 
	C40.284855,235.146255 107.521767,283.233582 175.461975,268.450470 
	C255.109863,251.119827 294.489105,165.046585 255.530182,92.004044 
z"/>
<path fill="#000000" opacity="1.000000" stroke="none" 
	d="
M126.531342,1.000000 
	C124.937592,1.992258 122.970711,3.486906 120.798180,3.899966 
	C95.861626,8.641123 74.033859,19.657135 54.597393,35.839710 
	C32.176632,54.506973 16.652229,77.749451 7.955760,105.510727 
	C5.801850,112.386536 4.635406,119.570053 2.947755,126.595970 
	C2.773515,127.321335 2.137634,127.935814 1.357980,128.300873 
	C1.000000,85.739983 1.000000,43.479961 1.000000,1.000000 
	C42.687302,1.000000 84.374992,1.000000 126.531342,1.000000 
z"/>
<path fill="#000000" opacity="1.000000" stroke="none" 
	d="
M301.000000,126.531342 
	C300.007751,124.937584 298.513123,122.970688 298.100067,120.798164 
	C293.358856,95.861626 282.342865,74.033867 266.160309,54.597404 
	C247.493042,32.176636 224.250565,16.652243 196.489304,7.955769 
	C189.613495,5.801860 182.429977,4.635415 175.404068,2.947758 
	C174.678696,2.773520 174.064209,2.137640 173.699127,1.357982 
	C216.260025,1.000000 258.520050,1.000000 301.000000,1.000000 
	C301.000000,42.687302 301.000000,84.374992 301.000000,126.531342 
z"/>
<path fill="#000000" opacity="1.000000" stroke="none" 
	d="
M175.468658,301.000000 
	C177.062408,300.007751 179.029297,298.513092 181.201828,298.100037 
	C206.138367,293.358856 227.966125,282.342865 247.402573,266.160278 
	C269.823273,247.492996 285.347809,224.250595 294.044220,196.489288 
	C296.198120,189.613480 297.364624,182.429993 299.052277,175.404083 
	C299.226501,174.678711 299.862335,174.064209 300.641998,173.699127 
	C301.000000,216.260025 301.000000,258.520050 301.000000,301.000000 
	C259.312683,301.000000 217.625000,301.000000 175.468658,301.000000 
z"/>
<path fill="#000000" opacity="1.000000" stroke="none" 
	d="
M1.000000,175.468658 
	C1.992258,177.062408 3.486906,179.029312 3.899969,181.201843 
	C8.641133,206.138397 19.657164,227.966141 35.839725,247.402634 
	C54.506969,269.823395 77.749428,285.347748 105.510712,294.044189 
	C112.386528,296.198090 119.570015,297.364624 126.595924,299.052277 
	C127.321304,299.226501 127.935806,299.862366 128.300873,300.642029 
	C85.739983,301.000000 43.479965,301.000000 1.000000,301.000000 
	C1.000000,259.312683 1.000000,217.625000 1.000000,175.468658 
z"/>
<path fill="#1C1C1B" opacity="1.000000" stroke="none" 
	d="
M255.711761,92.325729 
	C294.489105,165.046585 255.109863,251.119827 175.461975,268.450470 
	C107.521767,283.233582 40.284855,235.146255 31.929317,165.796951 
	C22.870129,90.607513 83.936562,25.683561 159.436295,31.361778 
	C201.690811,34.539677 233.814789,55.440987 255.711761,92.325729 
M137.138626,122.641426 
	C141.167618,104.331848 145.196594,86.022263 149.403961,66.902100 
	C145.222336,67.295128 141.763504,67.384048 138.392456,67.974350 
	C110.874382,72.792992 90.026993,86.991676 76.374672,112.393814 
	C68.566101,127.594803 65.662376,143.625183 67.583878,160.536835 
	C76.697182,160.536835 85.269432,161.381058 93.617264,160.370850 
	C114.590866,157.832764 132.555328,141.917572 137.138626,122.641426 
M232.075546,129.227554 
	C222.250015,91.733673 187.629425,68.352486 157.728699,67.806702 
	C154.525604,83.128265 151.298691,98.563759 147.683502,114.678360 
	C147.035126,117.769218 146.231079,120.836761 145.764023,123.954781 
	C143.072418,141.922806 156.073029,159.594513 174.189926,160.577057 
	C193.276459,161.612213 212.457855,160.948761 231.596649,160.833542 
	C232.647385,160.827225 234.647659,158.972961 234.584793,158.094910 
	C233.913376,148.716446 232.914474,139.361450 232.075546,129.227554 
M197.500107,169.257248 
	C187.535324,169.633957 177.355804,168.837082 167.647095,170.613403 
	C141.372528,175.420624 122.667480,201.162811 123.356407,230.005280 
	C174.458420,248.954407 225.209427,212.208679 232.396271,169.257416 
	C221.036560,169.257416 209.768326,169.257416 197.500107,169.257248 
M109.533638,224.074982 
	C111.105698,224.863190 112.677750,225.651382 115.047234,226.839401 
	C116.567192,218.246185 118.674866,210.478439 119.171852,202.608994 
	C120.055260,188.621002 111.203285,176.004822 98.142441,171.307831 
	C88.821045,167.955627 79.200615,169.536636 68.931999,169.318436 
	C75.002075,193.496643 88.268341,211.285431 109.533638,224.074982 
z"/>
<path fill="#F8CFA1" opacity="1.000000" stroke="none" 
	d="
M198.000092,169.257324 
	C209.768326,169.257416 221.036560,169.257416 232.396271,169.257416 
	C225.209427,212.208679 174.458420,248.954407 123.356407,230.005280 
	C122.667480,201.162811 141.372528,175.420624 167.647095,170.613403 
	C177.355804,168.837082 187.535324,169.633957 198.000092,169.257324 
z"/>
<path fill="#F5D1A8" opacity="1.000000" stroke="none" 
	d="
M232.005493,130.000000 
	C232.914474,139.361450 233.913376,148.716446 234.584793,158.094910 
	C234.647659,158.972961 232.647385,160.827225 231.596649,160.833542 
	C212.457855,160.948761 193.276459,161.612213 174.189926,160.577057 
	C156.073029,159.594513 143.072418,141.922806 145.764023,123.954781 
	C146.231079,120.836761 147.035126,117.769218 148.271957,114.346947 
	C157.124283,115.380379 165.427261,116.545670 173.643204,118.155167 
	C187.174957,120.806023 200.644806,123.771492 214.152176,126.548828 
	C220.088821,127.769501 226.053513,128.853790 232.005493,130.000000 
z"/>
<path fill="#F3D2AC" opacity="1.000000" stroke="none" 
	d="
M232.040512,129.613770 
	C226.053513,128.853790 220.088821,127.769501 214.152176,126.548828 
	C200.644806,123.771492 187.174957,120.806023 173.643204,118.155167 
	C165.427261,116.545670 157.124283,115.380379 148.466095,114.007393 
	C151.298691,98.563759 154.525604,83.128265 157.728699,67.806702 
	C187.629425,68.352486 222.250015,91.733673 232.040512,129.613770 
z"/>
<path fill="#F3D2AB" opacity="1.000000" stroke="none" 
	d="
M76.925125,111.978149 
	C90.026993,86.991676 110.874382,72.792992 138.392456,67.974350 
	C141.763504,67.384048 145.222336,67.295128 149.403961,66.902100 
	C145.196594,86.022263 141.167618,104.331848 136.436523,122.877609 
	C133.095490,122.998878 130.387512,123.224907 127.830246,122.706932 
	C119.190636,120.956993 110.618202,118.878418 101.993958,117.048615 
	C93.654488,115.279228 85.282715,113.662140 76.925125,111.978149 
z"/>
<path fill="#F5D0A6" opacity="1.000000" stroke="none" 
	d="
M76.649902,112.185982 
	C85.282715,113.662140 93.654488,115.279228 101.993958,117.048615 
	C110.618202,118.878418 119.190636,120.956993 127.830246,122.706932 
	C130.387512,123.224907 133.095490,122.998878 136.233337,123.181107 
	C132.555328,141.917572 114.590866,157.832764 93.617264,160.370850 
	C85.269432,161.381058 76.697182,160.536835 67.583878,160.536835 
	C65.662376,143.625183 68.566101,127.594803 76.649902,112.185982 
z"/>
<path fill="#F7CE9F" opacity="1.000000" stroke="none" 
	d="
M109.208237,223.895874 
	C88.268341,211.285431 75.002075,193.496643 68.931999,169.318436 
	C79.200615,169.536636 88.821045,167.955627 98.142441,171.307831 
	C111.203285,176.004822 120.055260,188.621002 119.171852,202.608994 
	C118.674866,210.478439 116.567192,218.246185 115.047234,226.839401 
	C112.677750,225.651382 111.105698,224.863190 109.208237,223.895874 
z"/>
</svg>

<svg xmlns="http://www.w3.org/2000/svg" xml:space="preserve" viewBox="0 0 300 300"><path fill="#FEFEFE" d="M127 1c15.354 0 30.708 0 46.23.358.834.78 1.449 1.416 2.174 1.59 7.026 1.687 14.21 2.854 21.085 5.008 27.762 8.696 51.004 24.22 69.671 46.641 16.183 19.437 27.199 41.265 31.94 66.201.413 2.173 1.908 4.14 2.9 6.202 0 15.354 0 30.708-.358 46.23-.78.834-1.415 1.449-1.59 2.174-1.687 7.026-2.854 14.21-5.008 21.085-8.696 27.762-24.22 51.004-46.641 69.671-19.437 16.183-41.265 27.199-66.201 31.94-2.173.413-4.14 1.908-6.202 2.9-15.354 0-30.708 0-46.23-.358-.834-.78-1.449-1.415-2.174-1.59-7.026-1.687-14.21-2.854-21.085-5.008-27.762-8.696-51.004-24.22-69.671-46.641-16.183-19.437-27.2-41.265-31.94-66.201-.413-2.173-1.908-4.14-2.9-6.202 0-15.354 0-30.708.358-46.23.78-.834 1.416-1.449 1.59-2.174 1.687-7.026 2.854-14.21 5.008-21.085 8.696-27.762 24.22-51.004 46.641-69.671C74.034 19.657 95.862 8.64 120.798 3.9c2.173-.413 4.14-1.908 6.202-2.9m128.53 91.004c-21.715-36.563-53.84-57.464-96.094-60.642C83.936 25.684 22.87 90.608 31.93 165.797c8.356 69.35 75.593 117.437 143.533 102.653 79.648-17.33 119.027-103.403 80.068-176.446"/><path d="M126.531 1c-1.593.992-3.56 2.487-5.733 2.9-24.936 4.741-46.764 15.757-66.2 31.94-22.421 18.667-37.946 41.91-46.642 69.67-2.154 6.877-3.32 14.06-5.008 21.086-.174.725-.81 1.34-1.59 1.705C1 85.74 1 43.48 1 1zM301 126.531c-.992-1.593-2.487-3.56-2.9-5.733-4.741-24.936-15.757-46.764-31.94-66.2-18.667-22.421-41.91-37.946-69.67-46.642-6.877-2.154-14.06-3.32-21.086-5.008-.725-.174-1.34-.81-1.705-1.59C216.26 1 258.52 1 301 1zM175.469 301c1.593-.992 3.56-2.487 5.733-2.9 24.936-4.741 46.764-15.757 66.2-31.94 22.421-18.667 37.946-41.91 46.642-69.67 2.154-6.877 3.32-14.06 5.008-21.086.175-.725.81-1.34 1.59-1.705C301 216.26 301 258.52 301 301zM1 175.469c.992 1.593 2.487 3.56 2.9 5.733 4.741 24.936 15.757 46.764 31.94 66.2 18.667 22.421 41.91 37.946 69.67 46.642 6.877 2.154 14.06 3.32 21.086 5.008.725.175 1.34.81 1.705 1.59C85.74 301 43.48 301 1 301z"/><path fill="#1C1C1B" d="M255.712 92.326c38.777 72.72-.602 158.794-80.25 176.124-67.94 14.784-135.177-33.304-143.533-102.653C22.87 90.607 83.937 25.684 159.436 31.362c42.255 3.178 74.379 24.079 96.276 60.964M137.139 122.64l12.265-55.739c-4.182.393-7.64.482-11.012 1.072-27.518 4.819-48.365 19.018-62.017 44.42-7.809 15.2-10.713 31.231-8.791 48.143 9.113 0 17.685.844 26.033-.166 20.974-2.538 38.938-18.453 43.522-37.73m94.937 6.587c-9.826-37.494-44.447-60.876-74.347-61.421-3.203 15.321-6.43 30.757-10.045 46.871-.649 3.091-1.453 6.159-1.92 9.277-2.692 17.968 10.309 35.64 28.426 36.622 19.086 1.035 38.268.372 57.407.257 1.05-.007 3.05-1.861 2.988-2.74-.672-9.378-1.67-18.733-2.51-28.866m-34.575 40.03c-9.965.376-20.144-.42-29.853 1.355-26.274 4.808-44.98 30.55-44.29 59.392 51.101 18.95 101.852-17.796 109.04-60.748zm-87.966 54.818 5.513 2.764c1.52-8.593 3.628-16.36 4.125-24.23.883-13.988-7.969-26.604-21.03-31.301-9.321-3.352-18.941-1.771-29.21-1.99 6.07 24.179 19.336 41.967 40.602 54.757"/><path fill="#F8CFA1" d="M198 169.257h34.396c-7.187 42.952-57.938 79.697-109.04 60.748-.689-28.842 18.017-54.584 44.291-59.392 9.709-1.776 19.888-.979 30.353-1.356"/><path fill="#F5D1A8" d="M232.005 130c.91 9.361 1.908 18.716 2.58 28.095.063.878-1.938 2.732-2.988 2.739-19.14.115-38.32.778-57.407-.257-18.117-.982-31.118-18.654-28.426-36.622.467-3.118 1.271-6.186 2.508-9.608 8.852 1.033 17.155 2.199 25.371 3.808 13.532 2.651 27.002 5.616 40.51 8.394 5.936 1.22 11.9 2.305 17.852 3.451"/><path fill="#F3D2AC" d="M232.04 129.614c-5.986-.76-11.951-1.844-17.888-3.065-13.507-2.778-26.977-5.743-40.509-8.394-8.216-1.61-16.519-2.775-25.177-4.148 2.833-15.443 6.06-30.879 9.263-46.2 29.9.545 64.521 23.927 74.312 61.807"/><path fill="#F3D2AB" d="M76.925 111.978c13.102-24.986 33.95-39.185 61.467-44.004 3.372-.59 6.83-.679 11.012-1.072-4.207 19.12-8.236 37.43-12.967 55.976-3.342.12-6.05.347-8.607-.171-8.64-1.75-17.212-3.829-25.836-5.658-8.34-1.77-16.711-3.387-25.069-5.07"/><path fill="#F5D0A6" d="M76.65 112.186a647 647 0 0 1 25.344 4.863c8.624 1.83 17.197 3.908 25.836 5.658 2.558.518 5.265.292 8.403.474-3.678 18.737-21.642 34.652-42.616 37.19-8.348 1.01-16.92.166-26.033.166-1.922-16.912.982-32.942 9.066-48.351"/><path fill="#F7CE9F" d="M109.208 223.896c-20.94-12.61-34.206-30.4-40.276-54.578 10.269.219 19.889-1.362 29.21 1.99 13.061 4.697 21.913 17.313 21.03 31.301-.497 7.87-2.605 15.637-4.125 24.23a941 941 0 0 1-5.839-2.943"/></svg>
